X: 25
T:Gan Ainm
R:Reel
S:Martin and Christine Dowling, Wisconsin (fiddle,flute)
D:Session tape, Kitchen Bar, Belfast late 80's
H:Played after The Rainy Day
M:4/4
Z:Bernie Stocks
K:G %i.e. 1 sharp
EAAB c2Ac | BGAG EGDG | EAAB cBcd | egdg eaag | eAAB c2Ac | BGAG EGDG |
EAAB cBcd |1 egdg edAG :|2 egdg eaag || a2ag aged | cdef g2eg | eaag a2ba |
aged eaa2 | a2ag aged | cdef g2fg | egdg egdg |1 egdg eaag :|2 egdg edAG ||
<end>
<start>
